archdroid-icon-theme/Archdroid-Orange/places/scalable/folder-saved-search.svg

<?xml version="1.0" encoding="UTF-8" standalone="no"?>
<svg
   xmlns:dc="http://purl.org/dc/elements/1.1/"
   xmlns:cc="http://creativecommons.org/ns#"
   xmlns:rdf="http://www.w3.org/1999/02/22-rdf-syntax-ns#"
   xmlns:svg="http://www.w3.org/2000/svg"
   xmlns="http://www.w3.org/2000/svg"
   xmlns:sodipodi="http://sodipodi.sourceforge.net/DTD/sodipodi-0.dtd"
   xmlns:inkscape="http://www.inkscape.org/namespaces/inkscape"
   fill="#FF9800"
   width="48"
   height="48"
   viewBox="0 0 48 48"
   id="svg2"
   version="1.1"
   inkscape:version="0.91 r13725"
   sodipodi:docname="folder-saved-search.svg">
  <metadata
     id="metadata10">
    <rdf:RDF>
      <cc:Work
         rdf:about="">
        <dc:format>image/svg+xml</dc:format>
        <dc:type
           rdf:resource="http://purl.org/dc/dcmitype/StillImage" />
        <dc:title />
      </cc:Work>
    </rdf:RDF>
  </metadata>
  <defs
     id="defs8" />
  <sodipodi:namedview
     pagecolor="#ffffff"
     bordercolor="#666666"
     borderopacity="1"
     objecttolerance="10"
     gridtolerance="10"
     guidetolerance="10"
     inkscape:pageopacity="0"
     inkscape:pageshadow="2"
     inkscape:window-width="1366"
     inkscape:window-height="713"
     id="namedview6"
     showgrid="false"
     inkscape:zoom="5.6568543"
     inkscape:cx="-23.874725"
     inkscape:cy="19.447356"
     inkscape:window-x="0"
     inkscape:window-y="30"
     inkscape:window-maximized="1"
     inkscape:current-layer="svg2"
     inkscape:snap-bbox="true"
     inkscape:bbox-paths="true"
     inkscape:snap-bbox-edge-midpoints="true" />
  <path
     d="M 8 8 C 5.79 8 4.0195312 9.79 4.0195312 12 L 4 36 C 4 38.21 5.79 40 8 40 L 40 40 C 42.21 40 44 38.21 44 36 L 44 16 C 44 13.79 42.21 12 40 12 L 24 12 L 20 8 L 8 8 z M 26.433594 17 C 30.538797 17 33.865234 20.328391 33.865234 24.433594 C 33.865234 26.280363 33.190953 27.965788 32.070312 29.263672 L 32.384766 29.578125 L 33.292969 29.578125 L 39 35.296875 L 37.296875 37 L 31.578125 31.292969 L 31.578125 30.390625 L 31.263672 30.076172 C 29.965787 31.191094 28.280363 31.865234 26.433594 31.865234 C 22.328391 31.865234 19 28.538797 19 24.433594 C 19 20.328391 22.328391 17 26.433594 17 z M 26.433594 19.287109 C 23.59197 19.287109 21.287109 21.59197 21.287109 24.433594 C 21.287109 27.275218 23.59197 29.578125 26.433594 29.578125 C 29.275218 29.578125 31.578125 27.275218 31.578125 24.433594 C 31.578125 21.59197 29.275218 19.287109 26.433594 19.287109 z "
     id="path3382" />
  <path
     d="m 79.186441,15.966102 -6,0 0,11 c 0,2.76 -2.24,5 -5,5 -2.76,0 -5,-2.24 -5,-5 0,-2.76 2.24,-5 5,-5 1.13,0 2.16,0.39 3,1.02 l 0,-11.02 8,0 0,4 z"
     id="path3340"
     inkscape:connector-curvature="0"
     style="fill:#ffffff;fill-opacity:1" />
</svg>

<svg xmlns="http://www.w3.org/2000/svg" fill="#FF9800" viewBox="0 0 48 48"><path d="m8 8c-2.21 0-3.98 1.79-3.98 4l-.02 24c0 2.21 1.79 4 4 4h32c2.21 0 4-1.79 4-4v-20c0-2.21-1.79-4-4-4h-16l-4-4h-12m18.434 9c4.105 0 7.432 3.328 7.432 7.434 0 1.847-.674 3.532-1.795 4.83l.314.314h.908l5.707 5.719-1.703 1.703-5.719-5.707v-.902l-.314-.314c-1.298 1.115-2.983 1.789-4.83 1.789-4.105 0-7.434-3.326-7.434-7.432 0-4.105 3.328-7.434 7.434-7.434m0 2.287c-2.842 0-5.146 2.305-5.146 5.146 0 2.842 2.305 5.145 5.146 5.145 2.842 0 5.145-2.303 5.145-5.145 0-2.842-2.303-5.146-5.145-5.146"/></svg>
